X:1
T:I’ll Count My Blessings
T:George Blackburn Holsinger
T:I’ll Count My Blessings
T:Public Domain
T:Public Domain
T:Public Domain
C:George Blackburn Holsinger
Z:Public Domain
%%score ( 1 2 ) ( 3 4 )
L:1/8
M:2/4
K:D
V:1 treble 
V:2 treble 
V:3 bass 
V:4 bass 
V:1
 [FA] | [Fd][Fd] [Ac][GB] | [GB][FA] [FA][DF] | [FA][EG] [EG][CA] | [DF]3 [FA] | %5
w: 1.~I|lift my heart to-|day in praise To|Him Who loves me|so, Whose|
w: 2.~I|thank Him for un-|cloud- ed skies— For|love be- yond my|ken— That|
w: 3.~I|go to meet a-|no- ther year, With|faith no doubt can|dim, God|
 [Fd][Fd] [Gc][Ad] | [Ac][GB] [DA][EG] | [DF][FA] [EG][CE] | D3 [A,D] | [B,D][DB] [GB][Gd] | %10
w: mer- cy crown- eth|all my days, And|makes my cup o’er-|flow. O|I loved Him as|
w: when my path in|sha- dow lies, The|sun- shine comes a-|gain. I|Him for the hopes|
w: reign- eth, and I|will not fear, But|trust my way with|Him. Then|that way be bright|
 [Gc][GB] [GB][GB] | [^GB][GB] [Gc][Gd] | [Ac]3 [GA] | [Fd][Fd] [Gc][Ad] | [Ac][GB] [DA][EG] | %15
w: I should For all|His bless- ings free?|Praise God|Who giv- eth naught|but good, For He|
w: ful- filled— For ev-|ery an- swered plea,|That though|life was not all|I willed, My God|
w: or dark, Let peace|un- shak- en be!|And let|me, like the soar-|ing lark, Sing “God|
 [DF][FA] [EG][CE] | D3 ||"^Refrain" [FA] | [Fd]3 [Fd] | [Ac]2 [GB]2 | [Ec][Ec] [EG][GB] | %21
w: is good to me!|I’ll|my|bless- ings—|Count them|o’er and o’er— I’ll|
w: is good to me!||||||
w: is good to me!”||||||
 [FA]3 [DF] | [CG][CG] [DA][FA] | [GB][GB] [Ec][Fc] | [Fd]2 [^Gd]2 | [Ac]3 [GA] | [Fd]3 [Fd] | %27
w: tell my|Fa- ther’s good- ness—|I will love Him|more, I’ll|count my|bless- ings,|
w: ||||||
w: ||||||
 [Ac]2 [GB]2 | [Ec][Ec] [EG][GB] | [FA]3 [FA] | [Fd][Fd] [Gc][Ad] | [Ac][GB] [DA][EG] | %32
w: boun- ti-|ful and free— Yet|I can|nev- er count them|all— So good is|
w: |||||
w: |||||
 [DF][FA] [EG][CE] | D3 |] %34
w: God to me! *||
w: ||
w: ||
V:2
 x | x4 | x4 | x4 | x4 | x4 | x4 | x4 | D3 x | x4 | x4 | x4 | x4 | x4 | x4 | x4 | D3 || x | x4 | %19
w: ||||||||have||||||||count|||
w: ||||||||thank|||||||||||
w: ||||||||if|||||||||||
 x4 | x4 | x4 | x4 | x4 | x4 | x4 | x4 | x4 | x4 | x4 | x4 | x4 | x4 | D3 |] %34
w: |||||||||||||||
w: |||||||||||||||
w: |||||||||||||||
V:3
 [D,A,] | [D,A,][D,A,] [D,D][D,D] | [D,D][D,D] [D,D][D,A,] | [A,,A,][A,,A,] [A,,A,][A,,A,] | %4
w: ~|~ ~ ~ ~|~ ~ ~ ~|~ ~ ~ ~|
 [D,A,]3 [D,D] | [D,A,][D,A,] [E,A,][F,D] | [G,D][G,D] [F,D][G,B,] | A,A, [A,,A,][A,,G,] | %8
w: ~ ~|~ ~ ~ ~|~ ~ ~ ~|~ ~ ~ ~|
 [D,F,]3 [D,F,] | G,G, G,[G,B,] | [G,D][G,D] [G,D][G,D] | [E,D][E,D] [E,C][E,B,] | A,3 [A,C] | %13
w: ~ ~|~ ~ ~ ~|~ ~ ~ ~|~ ~ ~ ~|~ ~|
 [D,D][D,A,] [E,A,][F,D] | [G,D][E,D] [F,D][G,B,] | A,A, [A,,A,][A,,G,] | [D,F,]3 || [D,A,] | %18
w: ~ ~ ~ ~|~ ~ ~ I’ll|count my ma- ny|I|will|
 [D,A,][D,A,] [D,A,][D,D] | [G,D][G,D] [G,D][G,D] | A,2 [A,,C]2 | [D,D][D,D] [D,D][D,A,] | %22
w: count them o’er and|o’er— ~ ~ ~|~ ~|~ ~ ~ love|
 [E,A,][E,A,] [F,A,][D,D] | [G,D][G,D] A,[F,^A,] | B,B, [E,B,][E,E] | [A,E]3 [A,C] | %26
w: Him more and more|I’ll count my ma-|bless- ings, O how|ful and|
 [D,D][D,A,] [D,A,][D,D] | [G,D][G,D] [G,D][G,D] | A,2 [A,,C]2 | [D,D][D,D] [D,D][D,D] | %30
w: free— * * *||||
 [D,D][D,A,] [E,A,][F,D] | [G,D][G,D] [G,D][G,B,] | A,A, [A,,A,][A,,G,] | [D,F,]3 |] %34
w: ||||
V:4
 x | x4 | x4 | x4 | x4 | x4 | x4 | A,A, x2 | x4 | G,G, G, x | x4 | x4 | A,3 x | x4 | x4 | A,A, x2 | %16
w: |||||||~ ~||~ ~ ~|||~|||bless- ings—|
 x3 || x | x4 | x4 | A,2 x2 | x4 | x4 | x2 ^A, x | B,B, x2 | x4 | x4 | x4 | A,2 x2 | x4 | x4 | x4 | %32
w: ||||~|||ny|boun- ti-||||||||
 A,A, x2 | x3 |] %34
w: ||

